web/workspace/public/assets/icons/white/bars.svg

<svg xmlns="http://www.w3.org/2000/svg" width="30" height="30" viewBox="0 0 30 30"><path d="M2 28h2V18H2v10zm6 0h2V14H8v14zm6 0h2V10h-2v18zm6 0h2V6h-2v22zm6-26v26h2V2h-2z" fill="#fff"/></svg>

<?xml version="1.0" encoding="iso-8859-1"?>
<!-- Generator: Adobe Illustrator 14.0.0, SVG Export Plug-In . SVG Version: 6.00 Build 43363)  -->
<!DOCTYPE svg PUBLIC "-//W3C//DTD SVG 1.1//EN" "http://www.w3.org/Graphics/SVG/1.1/DTD/svg11.dtd">
<svg version="1.1" id="Layer_1" xmlns="http://www.w3.org/2000/svg" xmlns:xlink="http://www.w3.org/1999/xlink" x="0px" y="0px"
	 width="30px" height="30px" viewBox="0 0 30 30" style="enable-background:new 0 0 30 30;" xml:space="preserve">
<path style="fill:#fff" d="M2,28h2V18H2V28z M8,28h2V14H8V28z M14,28h2V10h-2V28z M20,28h2V6h-2V28z M26,2v26h2V2H26z"/>
</svg>
